icons/ampersand.svg

<svg width="14" height="14" viewBox="0 0 14 14" fill="none" xmlns="http://www.w3.org/2000/svg">
<path d="M10.5 10.5L5.59902 5.59902C4.99205 4.99205 4.99205 4.00795 5.59902 3.40098L5.64264 3.35736C6.14116 2.85884 6.92225 2.7815 7.50885 3.17257V3.17257C8.42365 3.78244 8.37683 5.14181 7.42224 5.68729L5.51095 6.77945C4.08787 7.59265 3.96306 9.5973 5.2743 10.5807V10.5807C6.01545 11.1366 7.01937 11.1884 7.81379 10.7117L8.37347 10.3759C8.786 10.1284 9.13843 9.79235 9.4053 9.39206L10 8.5" stroke="red" stroke-linecap="round" stroke-linejoin="round"/>
</svg>

<svg xmlns="http://www.w3.org/2000/svg" width="14" height="14" fill="none" viewBox="0 0 14 14"><path stroke="red" stroke-linecap="round" stroke-linejoin="round" d="M10.5 10.5 5.599 5.599a1.554 1.554 0 0 1 0-2.198l.044-.044a1.48 1.48 0 0 1 1.866-.184v0c.915.61.868 1.969-.087 2.514L5.511 6.78a2.28 2.28 0 0 0-.237 3.802v0a2.28 2.28 0 0 0 2.54.13l.56-.335a3.25 3.25 0 0 0 1.031-.984L10 8.5"/></svg>
